X: 208
T: No_65_Alligator_Dance_Song_(b)_.krn
N: Derived from No_65_Alligator_Dance_Song_(b)_.krn
%%abc-version 2.0
%%abcx-abcm2ps-target-version 5.9.1 (29 Sep 2008)
%%abc-creator hum2abc beta
%%abcx-conversion-date 2019/03/15 08:38:45
%%humdrum-veritas 3647088674
%%humdrum-veritas-data 2832378908
%%linebreak <none>
%%barnumbers 0
L: 1/4
M: 3/4
K: F clef=bass
[K:clef=bass][M:3/4]CCC [I:setbarnb 2]| 
C3/B,/ (A,/F,//) z// | 
CCB, | 
A,3/F,/F, ||  
[M:2/4]B,/A,/B, | 
A,3/F,/ | 
F,z ||  
[M:3/4]F,F,F, | 
(A,3/F,/)F, :|]  



